storage/app/icons/phosphoricons/light/dresser-light.svg

<svg xmlns="http://www.w3.org/2000/svg" fill="currentColor" viewBox="0 0 256 256"><path d="M142 192a6 6 0 0 1-6 6h-16a6 6 0 0 1 0-12h16a6 6 0 0 1 6 6M120 70h16a6 6 0 0 0 0-12h-16a6 6 0 0 0 0 12m16 52h-16a6 6 0 0 0 0 12h16a6 6 0 0 0 0-12m78-82v176a14 14 0 0 1-14 14H56a14 14 0 0 1-14-14V40a14 14 0 0 1 14-14h144a14 14 0 0 1 14 14M54 154h148v-52H54Zm0-114v50h148V40a2 2 0 0 0-2-2H56a2 2 0 0 0-2 2m148 176v-50H54v50a2 2 0 0 0 2 2h144a2 2 0 0 0 2-2"/></svg>

<svg xmlns="http://www.w3.org/2000/svg" viewBox="0 0 256 256" fill="currentColor"><path d="M142,192a6,6,0,0,1-6,6H120a6,6,0,0,1,0-12h16A6,6,0,0,1,142,192ZM120,70h16a6,6,0,0,0,0-12H120a6,6,0,0,0,0,12Zm16,52H120a6,6,0,0,0,0,12h16a6,6,0,0,0,0-12Zm78-82V216a14,14,0,0,1-14,14H56a14,14,0,0,1-14-14V40A14,14,0,0,1,56,26H200A14,14,0,0,1,214,40ZM54,154H202V102H54ZM54,40V90H202V40a2,2,0,0,0-2-2H56A2,2,0,0,0,54,40ZM202,216V166H54v50a2,2,0,0,0,2,2H200A2,2,0,0,0,202,216Z"/></svg>
